X:1
T:Title
%%score { ( 1 3 ) | ( 2 4 ) }
L:1/8
M:4/4
K:A
V:1 treble nm="Grand Piano"
V:3 treble 
V:2 bass 
V:4 bass 
V:1
 z4 z2[Q:1/4=100] [A,C][B,D] | [CE]2 [EA]2 [DB]2 [DG]2 | [CA]2 [CE]4 [Ec]2 | %3
 [Fd]2 [A,DF]2 [A,EG]2 [A,DF]2 |[M:3/4] [A,CE]6 |[M:1/4] A2 |[M:4/4] [EAc]2 [EA]2 [EGB]2 [=Gc]2 | %7
 [Fe]2 [Fd]4 [Ec]2 | [B,EB]2 [CFA]2 [B,EG]2 [A,^DF]2 |[M:3/4] [G,E]6[K:bass] |[M:1/4] C,2 | %11
[M:4/4] F,2 G,2 A,3 G, | F, G,3 C,2[K:treble] ^E2 | F2 G2 A2 [FB]2 |[M:3/4] [^Ec]6 | %15
[M:1/4] [G,E]2 |[M:4/4] [A,EA]2 [A,EA]2 B2 B2 | c2 e4 [FAd]2 | [EAc]2 [CEA]2 [DEB]2 [DEG]2 | %19
[M:3/4] [CEA]6 |] %20
V:2
 z4 z2 [A,,E,]2 | [A,,A,]2 [C,A,]2 [E,G,]2 [E,B,]2 | [A,,A,]2 [A,,A,]4 [A,,A,]2 | %3
 [D,A,]2 D,2 D,2 D,2 |[M:3/4] A,,6 |[M:1/4] z D |[M:4/4] A,2 C,2 E,2 A,2 | %7
 [D,A,]2 [D,A,]4 [A,,A,]2 | G,,2 A,,2 B,,2 B,,2 |[M:3/4] E,4 z2 |[M:1/4] z2 |[M:4/4] z8 | %12
 z4 z2 [C,G,C]2 | [F,A,C]2 [^E,B,C]2 [F,A,C]2 [D,F,]2 |[M:3/4] [C,G,]6 |[M:1/4] E,D, | %16
[M:4/4] C,2 C,2 [E,G,E]2 [E,G,E]2 | [A,E]2 [A,CA]4[K:bass] D,2 | E,2 E,2 E,2 E,2 |[M:3/4] A,,6 |] %20
V:3
 x8 | x8 | x8 | x8 |[M:3/4] x6 |[M:1/4] CB |[M:4/4] x8 | x8 | x8 |[M:3/4] z2 z2[K:bass] D,2 | %10
[M:1/4] x2 |[M:4/4] x8 | x6[K:treble] x2 | x8 |[M:3/4] x6 |[M:1/4] x2 |[M:4/4] x8 | x8 | x8 | %19
[M:3/4] x6 |] %20
V:4
 x8 | x8 | x8 | x8 |[M:3/4] x6 |[M:1/4] A,2 |[M:4/4] x8 | x8 | x8 |[M:3/4] x6 |[M:1/4] x2 | %11
[M:4/4] x8 | x8 | x8 |[M:3/4] x6 |[M:1/4] x2 |[M:4/4] x8 | x6[K:bass] x2 | x8 |[M:3/4] x6 |] %20

